svg/OSM-icons/shop #ac39ac °ffffff !label=enshops,deLäden/29170;shop=free_flying;!name=;[shop];!label=enfree flying,dePara- gliding.svg

<svg xmlns="http://www.w3.org/2000/svg" viewBox="0 0 580 580" enable-background="new 0 0 580 580"><path fill="#111" stroke="#eee" stroke-width="3.408" d="m66.28 1.768c-41.34 0-64.57 21.371-64.57 65.04v450.12c0 40.844 20.895 62.23 62.19 62.23h452.02c41.31 0 62.23-20.315 62.23-62.23v-450.12c0-42.602-20.923-65.04-63.52-65.04-.003 0-448.5-.143-448.35 0z"/><path fill="#fff" d="m290 110.54c-142.49 0-258 102.7-258 165.25 0 3.49.38 6.942 1.084 10.353 7.08-5.831 14.996-11.4 23.672-16.674l193.8 135.02c-6.074 5.01-9.302 18.562-9.302 31.48 0 16.24 5.096 33.5 14.54 33.5 9.443 0 14.539-17.26 14.539-33.5 0-16.239-5.096-33.499-14.539-33.499-.397 0-.783.041-1.164.101l-50.666-181.57c28.28-4.195 58.35-6.457 89.53-6.457 26.717 0 52.619 1.66 77.27 4.774l-51.23 183.22c-8.811 1.157-13.554 17.766-13.554 33.43 0 16.24 5.096 33.5 14.539 33.5s14.539-17.26 14.539-33.5c0-13.629-3.591-27.972-10.327-32.23l199.48-137.81c8.508 4.848 16.361 9.964 23.479 15.325.197-1.811.305-3.632.305-5.465-.0001-62.55-115.51-165.25-258-165.25m-24.667 325.43c0 17.657-5.556 28.5-9.539 28.5s-9.54-10.843-9.54-28.5c0-16.542 4.876-27.1 8.768-28.369l.979-.112c3.967.364 9.332 11.126 9.332 28.481m-18.07-40.841l-184.4-129.25c35.25-20.06 81.84-35.458 135.08-43.952l49.32 173.2m82.81 40.841c0 17.657-5.556 28.5-9.539 28.5s-9.539-10.843-9.539-28.5 5.556-28.499 9.539-28.499 9.539 10.841 9.539 28.499m-2.615-40.635l49.39-175.22c55.19 7.569 103.86 22.464 141.06 42.33l-190.45 132.88"/></svg>

<?xml version="1.0" encoding="utf-8"?>
<!-- Generator: Adobe Illustrator 15.0.0, SVG Export Plug-In . SVG Version: 6.00 Build 0)  -->
<!DOCTYPE svg PUBLIC "-//W3C//DTD SVG 1.1//EN" "http://www.w3.org/Graphics/SVG/1.1/DTD/svg11.dtd">
<svg version="1.1" xmlns="http://www.w3.org/2000/svg" xmlns:xlink="http://www.w3.org/1999/xlink" x="0px" y="0px" width="580px"
	 height="580px" viewBox="0 0 580 580" enable-background="new 0 0 580 580" xml:space="preserve">
<g id="Layer_1">
	<g id="Layer_2">
		<g id="g1327">
			<path id="path1329" fill="#111111" stroke="#EEEEEE" stroke-width="3.408" d="M66.275,1.768
				c-41.335,0-64.571,21.371-64.571,65.036v450.123c0,40.844,20.895,62.229,62.192,62.229h452.024
				c41.307,0,62.229-20.315,62.229-62.229V66.804c0-42.602-20.923-65.036-63.521-65.036C514.625,1.768,66.133,1.625,66.275,1.768z"
				/>
		</g>
	</g>
</g>
<g id="Layer_2_1_">
	<path fill="#FFFFFF" d="M290,110.536c-142.489,0-258,102.704-258,165.25c0,3.49,0.38,6.942,1.084,10.353
		c7.075-5.831,14.996-11.4,23.672-16.674l193.801,135.019c-6.074,5.007-9.302,18.562-9.302,31.48c0,16.24,5.096,33.5,14.54,33.5
		c9.443,0,14.539-17.26,14.539-33.5c0-16.239-5.096-33.499-14.539-33.499c-0.397,0-0.783,0.041-1.164,0.101l-50.666-181.572
		c28.279-4.195,58.352-6.457,89.535-6.457c26.717,0,52.619,1.66,77.275,4.774l-51.233,183.224
		c-8.811,1.157-13.554,17.766-13.554,33.43c0,16.24,5.096,33.5,14.539,33.5s14.539-17.26,14.539-33.5
		c0-13.629-3.591-27.972-10.327-32.231l199.478-137.806c8.508,4.848,16.361,9.964,23.479,15.325
		c0.197-1.811,0.305-3.632,0.305-5.465C548,213.24,432.49,110.536,290,110.536z M265.333,435.964c0,17.657-5.556,28.5-9.539,28.5
		s-9.54-10.843-9.54-28.5c0-16.542,4.876-27.101,8.768-28.369l0.979-0.112C259.968,407.847,265.333,418.609,265.333,435.964z
		 M247.259,395.123L62.86,265.874c35.248-20.063,81.836-35.458,135.08-43.952L247.259,395.123z M330.066,435.964
		c0,17.657-5.556,28.5-9.539,28.5s-9.539-10.843-9.539-28.5s5.556-28.499,9.539-28.499S330.066,418.306,330.066,435.964z
		 M327.451,395.329l49.393-175.216c55.195,7.569,103.861,22.464,141.061,42.332L327.451,395.329z"/>
</g>
</svg>
